tools/download-figma-icons/icons/outlined-large/clock.svg

<svg width="65" height="65" viewBox="0 0 65 65" fill="none" xmlns="http://www.w3.org/2000/svg">
<path fill-rule="evenodd" clip-rule="evenodd" d="M3.04646 32.5C3.04646 48.7404 16.2589 61.9538 32.4992 61.9538C48.7396 61.9538 61.952 48.7404 61.952 32.5C61.952 16.2597 48.7396 3.04621 32.4992 3.04621C16.2589 3.04621 3.04646 16.2597 3.04646 32.5ZM0.000247901 32.5C0.000247901 14.5802 14.5794 0 32.4992 0C50.4191 0 64.9982 14.5802 64.9982 32.5C64.9982 50.4209 50.4191 65 32.4992 65C14.5794 65 0.000247901 50.4209 0.000247901 32.5ZM34.0223 14.0357V31.8814L46.4702 44.6694C47.0571 45.2716 47.0449 46.2362 46.4417 46.8231C46.1452 47.1104 45.7624 47.2546 45.3796 47.2546C44.9826 47.2546 44.5866 47.1003 44.2881 46.7936L31.4239 33.5782C31.4219 33.5772 31.4209 33.5761 31.4199 33.5751L31.4077 33.5619C31.4059 33.5601 31.4048 33.5577 31.4036 33.5555C31.4028 33.554 31.4019 33.5526 31.4006 33.5518C31.2676 33.4116 31.1609 33.2482 31.0868 33.0654C31.0845 33.0594 31.0829 33.0535 31.0812 33.0475C31.0793 33.0403 31.0774 33.033 31.0746 33.0258C31.0147 32.8613 30.9761 32.6856 30.9761 32.4998V14.0357C30.9761 13.195 31.6575 12.5126 32.4992 12.5126C33.341 12.5126 34.0223 13.195 34.0223 14.0357Z" fill="black"/>
</svg>

<svg xmlns="http://www.w3.org/2000/svg" width="65" height="65" fill="none" viewBox="0 0 65 65"><path fill="currentColor" fill-rule="evenodd" d="M3.046 32.5c0 16.24 13.213 29.454 29.453 29.454S61.952 48.74 61.952 32.5 48.74 3.046 32.499 3.046C16.26 3.046 3.046 16.26 3.046 32.5M0 32.5C0 14.58 14.58 0 32.5 0s32.498 14.58 32.498 32.5S50.42 65 32.5 65 0 50.42 0 32.5m34.022-18.464V31.88L46.47 44.67a1.522 1.522 0 1 1-2.182 2.125L31.424 33.578q-.003 0-.004-.003l-.012-.013-.004-.006-.003-.004a1.6 1.6 0 0 1-.314-.487l-.006-.017-.006-.022a1.5 1.5 0 0 1-.099-.526V14.036a1.523 1.523 0 1 1 3.046 0" clip-rule="evenodd"/></svg>
